flaticon/dialogue/chat-24.svg

<svg xmlns="http://www.w3.org/2000/svg" width="32" height="32" viewBox="0 0 24 24">
    <path d="M 16.796875 0 L 7.199219 0 C 3.230469 0 0.00390625 3.230469 0.00390625 7.199219 L 0.00390625 12.796875 C 0.00390625 16.632812 3.015625 19.777344 6.800781 19.984375 L 6.800781 23.320312 C 6.800781 23.597656 6.964844 23.84375 7.21875 23.949219 C 7.304688 23.984375 7.394531 24 7.480469 24 C 7.65625 24 7.828125 23.929688 7.960938 23.800781 L 8.710938 23.050781 C 10.679688 21.078125 13.300781 19.996094 16.085938 19.996094 L 16.800781 19.996094 C 20.769531 19.996094 23.996094 16.765625 23.996094 12.796875 L 23.996094 7.199219 C 23.996094 3.230469 20.769531 0 16.796875 0 Z M 23.195312 12.796875 C 23.195312 16.324219 20.328125 19.195312 16.796875 19.195312 L 16.085938 19.195312 C 13.085938 19.195312 10.265625 20.363281 8.144531 22.484375 L 7.601562 23.027344 L 7.601562 17.59375 C 7.601562 17.375 7.421875 17.195312 7.199219 17.195312 C 6.980469 17.195312 6.800781 17.375 6.800781 17.59375 L 6.800781 19.175781 C 3.460938 18.96875 0.800781 16.191406 0.800781 12.796875 L 0.800781 7.199219 C 0.800781 3.671875 3.671875 0.800781 7.199219 0.800781 L 16.796875 0.800781 C 20.328125 0.800781 23.195312 3.671875 23.195312 7.199219 Z M 23.195312 12.796875"/>
    <path d="M6.800781 7.605469L12.398438 7.605469C12.621094 7.605469 12.800781 7.425781 12.800781 7.203125 12.800781 6.984375 12.621094 6.804688 12.398438 6.804688L6.800781 6.804688C6.582031 6.804688 6.402344 6.984375 6.402344 7.203125 6.402344 7.425781 6.582031 7.605469 6.800781 7.605469zM17.597656 10.003906L6.800781 10.003906C6.582031 10.003906 6.402344 10.183594 6.402344 10.402344 6.402344 10.625 6.582031 10.804688 6.800781 10.804688L17.597656 10.804688C17.820312 10.804688 18 10.625 18 10.402344 18 10.183594 17.820312 10.003906 17.597656 10.003906zM17.597656 13.203125L6.800781 13.203125C6.582031 13.203125 6.402344 13.382812 6.402344 13.601562 6.402344 13.824219 6.582031 14.003906 6.800781 14.003906L17.597656 14.003906C17.820312 14.003906 18 13.824219 18 13.601562 18 13.382812 17.820312 13.203125 17.597656 13.203125zM17.597656 13.203125"/>
</svg>

<svg xmlns="http://www.w3.org/2000/svg" width="32" height="32" viewBox="0 0 24 24">
    <path d="M16.797 0H7.199C3.23 0 .004 3.23.004 7.2v5.597A7.204 7.204 0 0 0 6.8 19.984v3.336a.677.677 0 0 0 1.16.48l.75-.75a10.35 10.35 0 0 1 7.375-3.054h.715c3.969 0 7.195-3.23 7.195-7.2V7.2C23.996 3.23 20.77 0 16.796 0zm6.398 12.797a6.404 6.404 0 0 1-6.398 6.398h-.711c-3 0-5.82 1.168-7.941 3.29l-.543.542v-5.433a.401.401 0 0 0-.801 0v1.582c-3.34-.207-6-2.985-6-6.38V7.2A6.407 6.407 0 0 1 7.199.801h9.598a6.404 6.404 0 0 1 6.398 6.398zm0 0"/>
    <path d="M6.8 7.605h5.598a.401.401 0 0 0 0-.8H6.801a.4.4 0 0 0 0 .8zm0 0M17.598 10.004H6.8a.4.4 0 0 0 0 .8h10.797a.401.401 0 0 0 0-.8zm0 0M17.598 13.203H6.8a.4.4 0 0 0 0 .8h10.797c.222 0 .402-.179.402-.401a.401.401 0 0 0-.402-.399zm0 0"/>
</svg>
